X:1
T:Partition sans titre
C:Compositeur / Arrangeur
L:1/8
M:4/4
I:linebreak $
K:D
V:1 treble nm="Violon" snm="Vln."
V:1
"D" D3 D DFEG | F2 DE F2 DF |"A" AdcB AGFE |"D" DFAd"G" BGEC |"D" D3 D DFEG | F2 DE F2 DF | %6
"A" AdcB AGFE |1"D" D2 A2 ABAF :|2"D" D2 A2 ABAG |:"D" FAdA FAdA |"G" GBdB GBdB |"A" Acec Acec | %12
"D" dfed"A" cBAG |"D" FAdA FAdA |"G" GBdB GBdB |"A" Acec Acec |1"D" dfec d2 AG :|2"D" dfec d2 AF |] %18
